X:155
T:O'Callaghan's Hornpipe
C:Padraig O'Keeffe?
B:Terry "Cuz" Teahan "Sliabh Luachra on Parade" 1980
Z:Patrick Cavanagh
M:4/4
L:1/8
R:Hornpipe
K:G
d2 | e/f/g fd edBA | GFGB dBGE | DEGA BAB/c/d | e/f/gfg edB/c/d | 
g/a/g f/g/f e/f/e d2 | e/f/gfa gedc | BABG DGBA | G2GF G2 :| 
e/f/g | aege dega | gGGF G2e/f/g | aege dega | beed e2g2 | 
fed/e/f gfeg | fed/e/f gfed | e/f/gfd edBA | Beed e2 :|| 

